deepin/status/network-mobile-3g-online-symbolic.svg

<?xml version="1.0" encoding="UTF-8" standalone="no"?>
<svg width="16px" height="16px" viewBox="0 0 16 16" version="1.1" xmlns="http://www.w3.org/2000/svg" xmlns:xlink="http://www.w3.org/1999/xlink">
    <!-- Generator: Sketch 39.1 (31720) - http://www.bohemiancoding.com/sketch -->
    <title>network-mobile-3g-on</title>
    <desc>Created with Sketch.</desc>
    <defs></defs>
    <g id="Page-1" stroke="none" stroke-width="1" fill="none" fill-rule="evenodd">
        <g id="network-mobile-3g-on">
            <g id="Group-21">
                <polygon id="Fill-11" points="0 16 16 16 16 0 0 0"></polygon>
                <path d="M14.4991,6.3803 C14.4991,5.5843 14.1761,4.8633 13.6541,4.3413 C13.1321,3.8193 12.4121,3.4963 11.6151,3.4963 L11.4991,3.4963 L11.3831,3.4963 C10.5861,3.4963 9.8661,3.8193 9.3441,4.3413 C8.8221,4.8633 8.4991,5.5843 8.4991,6.3803 L8.4991,8.4963 L8.4991,10.6123 C8.4991,11.4093 8.8221,12.1303 9.3441,12.6523 C9.8661,13.1733 10.5861,13.4963 11.3831,13.4963 L11.4991,13.4963 L11.6151,13.4963 C12.4121,13.4963 13.1321,13.1733 13.6541,12.6523 C14.1761,12.1303 14.4991,11.4093 14.4991,10.6123 L14.4991,8.4963" id="Stroke-13" stroke="#FFFFFF" stroke-linecap="round" stroke-linejoin="round"></path>
                <path d="M1.4991,11.0264 C1.4991,12.3904 2.6051,13.4964 3.9691,13.4964 L4.0291,13.4964 C5.3931,13.4964 6.4991,12.3904 6.4991,11.0264 L6.4991,10.9664 C6.4991,9.6024 5.3931,8.4964 4.0291,8.4964 C5.3931,8.4964 6.4991,7.3904 6.4991,6.0264 L6.4991,5.9664 C6.4991,4.6024 5.3931,3.4964 4.0291,3.4964 L3.9691,3.4964 C2.6051,3.4964 1.4991,4.6024 1.4991,5.9664" id="Stroke-15" stroke="#FFFFFF" stroke-linecap="round" stroke-linejoin="round"></path>
                <path d="M11.4991,8.4965 L14.4991,8.4965" id="Stroke-17" stroke="#FFFFFF" stroke-linecap="round" stroke-linejoin="round"></path>
                <path d="M14.4991,8.4965 L14.4991,13.4965" id="Stroke-19" stroke="#FFFFFF" stroke-linecap="round" stroke-linejoin="round"></path>
            </g>
        </g>
    </g>
</svg>

<?xml version="1.0" encoding="iso-8859-1"?>
<!-- Generator: Adobe Illustrator 18.0.0, SVG Export Plug-In . SVG Version: 6.00 Build 0)  -->
<!DOCTYPE svg PUBLIC "-//W3C//DTD SVG 1.1//EN" "http://www.w3.org/Graphics/SVG/1.1/DTD/svg11.dtd">
<svg version="1.1" id="&#x56FE;&#x5C42;_1" xmlns="http://www.w3.org/2000/svg" xmlns:xlink="http://www.w3.org/1999/xlink" x="0px"
	 y="0px" viewBox="0 0 16 16" style="enable-background:new 0 0 16 16;" xml:space="preserve">
<g>
	<path style="fill:none;stroke:#FFFFFF;stroke-linecap:round;stroke-linejoin:round;stroke-miterlimit:10;" d="M14.499,6.38
		c0-0.796-0.323-1.517-0.845-2.039c-0.522-0.522-1.243-0.845-2.039-0.845h-0.116h-0.116c-0.796,0-1.517,0.323-2.039,0.845
		C8.822,4.863,8.499,5.584,8.499,6.38v2.116v2.116c0,0.796,0.323,1.517,0.845,2.039c0.522,0.522,1.243,0.845,2.039,0.845h0.116
		h0.116c0.796,0,1.517-0.323,2.039-0.845c0.522-0.522,0.845-1.243,0.845-2.039V8.496l0,0"/>
	<path style="fill:none;stroke:#FFFFFF;stroke-linecap:round;stroke-linejoin:round;stroke-miterlimit:10;" d="M1.499,11.026
		c0,1.364,1.106,2.47,2.47,2.47h0.06c1.364,0,2.47-1.106,2.47-2.47v-0.06c0-1.364-1.106-2.47-2.47-2.47
		c1.364,0,2.47-1.106,2.47-2.47v-0.06c0-1.364-1.106-2.47-2.47-2.47h-0.06c-1.364,0-2.47,1.106-2.47,2.47"/>
	<path style="fill:none;stroke:#FFFFFF;stroke-miterlimit:10;" d="M3.969,8.497"/>
	
		<line style="fill:none;stroke:#FFFFFF;stroke-linecap:round;stroke-linejoin:round;stroke-miterlimit:10;" x1="11.499" y1="8.497" x2="14.499" y2="8.497"/>
	
		<line style="fill:none;stroke:#FFFFFF;stroke-linecap:round;stroke-linejoin:round;stroke-miterlimit:10;" x1="14.499" y1="8.497" x2="14.499" y2="13.497"/>
</g>
</svg>
